X: 282
U:~=!turn!
M:C
L:1/8
K:E dorian
c | d<fe<f d>AF>A | d<f (g/2f/2e/2d/2) (c<e)e>f | d>fe>f d>AF>A | {/F}G>E (G/2F/2E/2D/2) C<EE>c |
d<fe>f d>AF>A | d<f (g/2f/2e/2d/2) (c<e)e>g | ((3fed) ((3edc) ((3dcB) ((3AGF) | {/F}G>E (G/2F/2E/2D/2) C<EE |]


